!!!OTL: SCHLAFE MEIN PRINZCHEN
!!!ARE: Europa, Mitteleuropa, Deutschland
!!!SCT: B0623
!!!YEM: Copyright 1995, estate of Helmut Schaffrath.
**kern
*ICvox
*Ivox
*M6/8
*k[b-]
*F:
=1
{8a
8b-
8a
8g
8f
8g
=2
4f
2r}
=3
{8f
8b-
8b-
8b-
8cc
8dd
=4
4cc
2r}
=5
{8g
8f#
8g
8g
8f#
8g
=6
4a
2r}
=7
{8a
8g
8a
8b-
8a
8b-
=8
4cc
2r}
=9
{8dd
8cc#
8dd
8dd
8cc#
8dd
=10
4ff
2r}
=11
{8cc
8cc
8cc
8cc
8bn
8cc
=12
4ff
2r}
=13
{8b-
8cc
8b-
8a
8b-
8cc
=14
4c
2r}
=15
{8a
8b-
8a
8g
8f
8g
=16
4.f
4.r}
==
!!!AGN: Kinder -, Wiegen - Lied
!!!ONB: ESAC (Essen Associative Code) Database: BOEHME
!!!AMT: compound duple
!!!AIN: vox
!!!EED: Helmut Schaffrath
!!!EEV: 1.0
*-
